icons/user.svg

<svg width="16" height="16" viewBox="0 0 16 16" fill="none" xmlns="http://www.w3.org/2000/svg">
<path fill-rule="evenodd" clip-rule="evenodd" d="M14 8C14 9.53339 13.4248 10.9324 12.4784 11.9931C11.3795 13.2246 9.78031 14 8 14C6.22504 14 4.63009 13.2293 3.53157 12.0042C2.57924 10.9422 2 9.53875 2 8C2 4.68629 4.68629 2 8 2C11.3137 2 14 4.68629 14 8ZM12.0627 10.9152C11.8405 10.6703 11.5054 10.5 11 10.5L10.5624 10.5C10.4812 10.5 10.4731 10.5 10.4969 10.5C10.4589 10.5001 10.4166 10.5028 10.3715 10.5056C10.0315 10.5269 9.53289 10.5581 9.50156 9.59775C10.3974 9.07882 11 8.10978 11 7C11 5.34315 9.65685 4 8 4C6.34315 4 5 5.34315 5 7C5 8.11133 5.60428 9.08152 6.5022 9.59992C6.50337 9.62991 6.50489 9.65978 6.5064 9.68942C6.52822 10.1189 6.54758 10.5 5.5 10.5C4.76123 10.5 4.86893 10.5 4.98308 10.5L5.06938 10.5H5C4.55278 10.5 4.20556 10.66 3.95835 10.9442C4.86766 12.1903 6.33928 13 8 13C9.67359 13 11.1551 12.1777 12.0627 10.9152Z" fill="#E85984"/>
</svg>

<svg xmlns="http://www.w3.org/2000/svg" width="16" height="16" fill="none"><path fill="#E85984" fill-rule="evenodd" d="M14 8a5.978 5.978 0 0 1-1.522 3.993A5.985 5.985 0 0 1 8 14c-1.775 0-3.37-.77-4.468-1.996A6 6 0 1 1 14 8Zm-1.937 2.915c-.223-.245-.558-.415-1.063-.415h-.503c-.038 0-.08.003-.126.006-.34.02-.838.052-.87-.908a3 3 0 1 0-3 .002l.005.09c.022.429.042.81-1.006.81h-.517.086H5c-.447 0-.794.16-1.042.444A4.993 4.993 0 0 0 8 13a4.994 4.994 0 0 0 4.063-2.085Z" clip-rule="evenodd"/></svg>
